packages/calcite-ui-icons/icons/subheading-1-rtl-32.svg

<svg xmlns="http://www.w3.org/2000/svg" viewBox="0 0 32 32"><path d="M29 12v1h-3v-1h1V9h-1V8h2v4h1zm-5-3H3v2h21V9zm5 7H3v1h26v-1zm0 6H3v1h26v-1zm0 6H3v1h26v-1zm0-24H3v1h26V4z"/><path fill="none" d="M0 0h32v32H0z"/></svg>

<?xml version="1.0" encoding="UTF-8"?><svg id="icons" xmlns="http://www.w3.org/2000/svg" viewBox="0 0 32 32"><defs><style>.cls-1{fill:none;}</style></defs><rect class="cls-1" x="0" width="32" height="32" transform="translate(32 32) rotate(-180)"/><path d="M29,12v1h-3v-1h1v-3h-1v-1h2v4h1ZM24,9H3s0,2,0,2h21s0-2,0-2ZM29,16H3s0,1,0,1h26s0-1,0-1ZM29,22H3s0,1,0,1h26s0-1,0-1ZM29,28H3s0,1,0,1h26s0-1,0-1ZM29,4H3s0,.99998,0,.99998h26s0-.99998,0-.99998Z"/></svg>
